svg/fluentui-system-icons/ic_fluent_location_arrow_right_16_regular.svg

<svg width="16" height="16" viewBox="0 0 16 16" fill="none" xmlns="http://www.w3.org/2000/svg">
<path d="M9.15886 14.5577C10.9028 13.0162 14 9.8739 14 7C14 3.68629 11.3137 1 8 1C4.68629 1 2 3.68629 2 7C2 9.8739 5.09724 13.0162 6.84114 14.5577C7.5095 15.1485 8.4905 15.1485 9.15886 14.5577ZM8 2C10.7614 2 13 4.23858 13 7C13 8.10846 12.3854 9.39535 11.4303 10.6827C10.4963 11.9415 9.34306 13.0602 8.49657 13.8085C8.20644 14.065 7.79356 14.065 7.50343 13.8085C6.65694 13.0602 5.50366 11.9415 4.56972 10.6827C3.61464 9.39535 3 8.10846 3 7C3 4.23858 5.23858 2 8 2ZM8.14645 4.85355C7.95118 4.65829 7.95118 4.34171 8.14645 4.14645C8.34171 3.95118 8.65829 3.95118 8.85355 4.14645L10.8536 6.14645C11.0488 6.34171 11.0488 6.65829 10.8536 6.85355L8.85355 8.85355C8.65829 9.04882 8.34171 9.04882 8.14645 8.85355C7.95118 8.65829 7.95118 8.34171 8.14645 8.14645L9.29289 7H5.5C5.22386 7 5 6.77614 5 6.5C5 6.22386 5.22386 6 5.5 6H9.29289L8.14645 4.85355Z" fill="#212121"/>
</svg>

<svg xmlns="http://www.w3.org/2000/svg" width="16" height="16"><path d="M9.159 14.558C10.903 13.016 14 9.874 14 7A6 6 0 0 0 2 7c0 2.874 3.097 6.016 4.841 7.558.668.59 1.65.59 2.318 0ZM8 2a5 5 0 0 1 5 5c0 1.108-.615 2.395-1.57 3.683-.934 1.258-2.087 2.377-2.933 3.126a.737.737 0 0 1-.994 0c-.846-.749-2-1.867-2.933-3.126C3.615 9.395 3 8.108 3 7a5 5 0 0 1 5-5Zm.146 2.854a.5.5 0 1 1 .708-.708l2 2a.5.5 0 0 1 0 .708l-2 2a.5.5 0 1 1-.708-.708L9.293 7H5.5a.5.5 0 0 1 0-1h3.793L8.146 4.854Z"/></svg>
